img/skills/Node.svg

<svg width="46" height="55" viewBox="0 0 46 55" fill="none" xmlns="http://www.w3.org/2000/svg">
<path d="M23 2L1 15V40.5L23 53L45 40.5V15L23 2Z" fill="#333333" stroke="#419A35" stroke-width="2"/>
<path d="M40.1463 30.1302C40.1463 30.5019 40.5375 30.7437 40.87 30.5774L42.7236 29.6506C42.893 29.5659 43 29.3928 43 29.2034V27.9042C43 27.7226 42.9016 27.5553 42.7428 27.4671L38.9623 25.3668C38.8113 25.2829 38.6277 25.2829 38.4767 25.3668L34.6962 27.4671C34.5375 27.5553 34.439 27.7226 34.439 27.9042V32.0719C34.439 32.2535 34.5375 32.4208 34.6962 32.509L38.489 34.6161C38.6332 34.6962 38.8078 34.7 38.9554 34.6262L40.7253 33.7412C41.0849 33.5614 41.096 33.0522 40.7445 32.8569L37.5499 31.0821C37.3911 30.9939 37.2927 30.8266 37.2927 30.645V29.78C37.2927 29.6128 37.3762 29.4567 37.5153 29.364L38.4422 28.7461C38.6101 28.6341 38.8289 28.6341 38.9969 28.7461L39.9237 29.364C40.0628 29.4567 40.1463 29.6128 40.1463 29.78V30.1302Z" fill="white"/>
<path fill-rule="evenodd" clip-rule="evenodd" d="M30.1585 20.8831C30.1585 20.4944 30.5825 20.2544 30.9158 20.4543L32.2938 21.2812C32.4444 21.3715 32.5366 21.5343 32.5366 21.7099V32.5643C32.5366 32.7367 32.4478 32.897 32.3016 32.9883L28.9818 35.0632C28.8275 35.1597 28.633 35.1647 28.4739 35.0763L24.7084 32.9843C24.5497 32.8962 24.4512 32.7288 24.4512 32.5473V28.3796C24.4512 28.198 24.5497 28.0307 24.7084 27.9425L28.5394 25.8141C28.6619 25.7461 28.8074 25.7326 28.9404 25.7769L29.5004 25.9636C29.8242 26.0715 30.1585 25.8305 30.1585 25.4892V20.8831ZM29.0091 28.7459C28.8411 28.6339 28.6223 28.6339 28.4544 28.7459L27.5275 29.3638C27.3884 29.4565 27.3049 29.6126 27.3049 29.7798V31.0543C27.3049 31.2695 27.4426 31.4605 27.6468 31.5286L28.4997 31.8129C28.6461 31.8617 28.8068 31.8402 28.9352 31.7546L29.9359 31.0875C30.075 30.9947 30.1585 30.8386 30.1585 30.6714V29.7798C30.1585 29.6126 30.075 29.4565 29.9359 29.3638L29.0091 28.7459Z" fill="white"/>
<path d="M13.9878 28.3798C13.9878 28.1982 14.0863 28.0309 14.245 27.9427L18.0255 25.8424C18.1765 25.7585 18.3601 25.7585 18.5111 25.8424L22.2916 27.9427C22.4503 28.0309 22.5488 28.1982 22.5488 28.3798V32.5475C22.5488 32.729 22.4503 32.8964 22.2916 32.9845L18.5111 35.0848C18.3601 35.1687 18.1765 35.1687 18.0255 35.0848L14.245 32.9845C14.0863 32.8964 13.9878 32.729 13.9878 32.5475V28.3798Z" fill="url(#paint0_linear_594_3427)"/>
<path d="M37.7683 29.8593C37.7683 29.6777 37.8667 29.5104 38.0255 29.4222L38.4767 29.1715C38.6277 29.0876 38.8113 29.0876 38.9623 29.1715L39.4135 29.4222C39.5723 29.5104 39.6707 29.6777 39.6707 29.8593V30.3278C39.6707 30.5094 39.5723 30.6767 39.4135 30.7649L38.9623 31.0155C38.8113 31.0994 38.6277 31.0994 38.4767 31.0155L38.0255 30.7649C37.8667 30.6767 37.7683 30.5094 37.7683 30.3278V29.8593Z" fill="url(#paint1_linear_594_3427)"/>
<path d="M4 33.3343C4 33.7336 4.44507 33.9718 4.77735 33.7503L6.63101 32.5145C6.77011 32.4218 6.85366 32.2657 6.85366 32.0985V29.78C6.85366 29.6128 6.93721 29.4567 7.07631 29.364L8.00314 28.7461C8.17109 28.6341 8.38989 28.6341 8.55784 28.7461L9.48467 29.364C9.62377 29.4567 9.70732 29.6128 9.70732 29.78V32.1258C9.70732 32.2777 9.77636 32.4213 9.89497 32.5162L11.273 33.6186C11.6004 33.8805 12.0854 33.6475 12.0854 33.2282V27.8871C12.0854 27.7147 11.9966 27.5545 11.8504 27.4631L8.53054 25.3882C8.37626 25.2918 8.18177 25.2868 8.02272 25.3751L4.25718 27.4671C4.09845 27.5553 4 27.7226 4 27.9042V33.3343Z" fill="white"/>
<defs>
<linearGradient id="paint0_linear_594_3427" x1="19.6951" y1="26.1831" x2="16.3659" y2="34.2685" gradientUnits="userSpaceOnUse">
<stop stop-color="#41873F"/>
<stop offset="1" stop-color="#409F32"/>
</linearGradient>
<linearGradient id="paint1_linear_594_3427" x1="38.7195" y1="29.0366" x2="38.7195" y2="31.1504" gradientUnits="userSpaceOnUse">
<stop stop-color="#41883F"/>
<stop offset="1" stop-color="#3FA82E"/>
</linearGradient>
</defs>
</svg>

<svg width="46" height="55" fill="none" xmlns="http://www.w3.org/2000/svg"><path d="M23 2 1 15v25.5L23 53l22-12.5V15L23 2z" fill="#333" stroke="#419A35" stroke-width="2"/><path d="M40.146 30.13a.5.5 0 0 0 .724.447l1.854-.926a.5.5 0 0 0 .276-.448v-1.299a.5.5 0 0 0-.257-.437l-3.78-2.1a.5.5 0 0 0-.486 0l-3.78 2.1a.5.5 0 0 0-.258.437v4.168a.5.5 0 0 0 .257.437l3.793 2.107a.5.5 0 0 0 .466.01l1.77-.885a.5.5 0 0 0 .02-.884l-3.195-1.775a.5.5 0 0 1-.257-.437v-.865a.5.5 0 0 1 .222-.416l.927-.618a.5.5 0 0 1 .555 0l.927.618a.5.5 0 0 1 .222.416v.35z" fill="#fff"/><path fill-rule="evenodd" clip-rule="evenodd" d="M30.159 20.883a.5.5 0 0 1 .757-.429l1.378.827a.5.5 0 0 1 .243.429v10.854a.5.5 0 0 1-.235.424l-3.32 2.075a.5.5 0 0 1-.508.013l-3.766-2.092a.5.5 0 0 1-.257-.437V28.38a.5.5 0 0 1 .257-.438l3.831-2.128a.5.5 0 0 1 .401-.037l.56.187a.5.5 0 0 0 .659-.475v-4.606zm-1.15 7.863a.5.5 0 0 0-.555 0l-.927.618a.5.5 0 0 0-.222.416v1.274a.5.5 0 0 0 .342.475l.853.284a.5.5 0 0 0 .435-.058l1-.668a.5.5 0 0 0 .224-.416v-.891a.5.5 0 0 0-.223-.416l-.927-.618z" fill="#fff"/><path d="M13.988 28.38a.5.5 0 0 1 .257-.437l3.78-2.1a.5.5 0 0 1 .486 0l3.78 2.1a.5.5 0 0 1 .258.437v4.168a.5.5 0 0 1-.257.436l-3.78 2.1a.5.5 0 0 1-.486 0l-3.781-2.1a.5.5 0 0 1-.257-.437V28.38z" fill="url(#a)"/><path d="M37.768 29.86a.5.5 0 0 1 .258-.438l.45-.25a.5.5 0 0 1 .486 0l.451.25a.5.5 0 0 1 .258.437v.469a.5.5 0 0 1-.258.437l-.45.25a.5.5 0 0 1-.486 0l-.451-.25a.5.5 0 0 1-.258-.437v-.469z" fill="url(#b)"/><path d="M4 33.334a.5.5 0 0 0 .777.416l1.854-1.236a.5.5 0 0 0 .223-.416V29.78a.5.5 0 0 1 .222-.416l.927-.618a.5.5 0 0 1 .555 0l.927.618a.5.5 0 0 1 .222.416v2.346a.5.5 0 0 0 .188.39l1.378 1.103a.5.5 0 0 0 .812-.39v-5.342a.5.5 0 0 0-.235-.424l-3.32-2.075a.5.5 0 0 0-.507-.013l-3.766 2.092a.5.5 0 0 0-.257.437v5.43z" fill="#fff"/><defs><linearGradient id="a" x1="19.695" y1="26.183" x2="16.366" y2="34.269" gradientUnits="userSpaceOnUse"><stop stop-color="#41873F"/><stop offset="1" stop-color="#409F32"/></linearGradient><linearGradient id="b" x1="38.719" y1="29.037" x2="38.719" y2="31.15" gradientUnits="userSpaceOnUse"><stop stop-color="#41883F"/><stop offset="1" stop-color="#3FA82E"/></linearGradient></defs></svg>
